!!!OTL: 145. Freylekhs
!!!Genre:	Freylekhs
!!!Mode:	Minor
!!!Listening/dance:	dance
!!!One_Mode:	yes
**kern
*I"P1
*clefG2
*k[b-e-]
*g:
*M2/4
*>A
=1
8g
4dd
8dd
=2
8ddL
8dd
8dd
8ddJ
=3
8ddL
8ee-
8dd
8ccJ
=4
4dd
4b-
=5
8g
4cc
8cc
=6
8ccL
8cc
8cc
8ccJ
=7
8ccL
8ee-
8dd
8ccJ
=8
4b-
4g
=9
8g
4dd
8dd
=10
8ddL
8gg
8dd
8ggJ
=11
8ddL
8ee-
8dd
8ccJ
=12
4dd
4b-
=13
8g
4cc
8cc
=14
8ccL
8ccJ
4cc
=15
8ccL
8ee-
8dd
8ccJ
=16
4b-
4g
=17!|:
*>B
16gLL
16g
16g
16gJJ
16ccLL
16cc
16cc
16ccJJ
=18
16b-LL
16b-
16b-
16b-JJ
16aLL
16a
16a
16aJJ
=19
8gL
8ccJ
8b-L
8aJ
*>B1
=20
8gL
8aJ
4b-
*>B2
=21:|!
2g
=22!|:
*>C
16gLL
16aJJ
4b-
8b-
=23
8ccL
8ccJ
4g
=24
8b-L
8b-J
8aL
8aJ
=25
16gLL
16a
16b-
16ccJJ
4b-
=26
16gLL
16aJJ
4b-
8b-
=27
8ccL
8ccJ
4g
=28
8b-L
8b-J
8aL
8aJ
=29
2g
=:|!
*-
